Origami/64x64/apps/dse.svg

<svg width="64" height="64" version="1" xmlns="http://www.w3.org/2000/svg">
 <path d="m4.050798 31.000828c-0.0118 0.33399-0.050799 0.661981-0.050799 0.999971 0 15.511558 12.487644 27.999201 27.999201 27.999201s27.999201-12.487643 27.999201-27.999201c0-0.33767-0.03904-0.665261-0.05078-0.999971-0.527984 15.041571-12.775634 26.999229-27.949201 26.999229-15.173967 0-27.421217-11.957658-27.949202-26.999229z" style="opacity:.2"/>
 <rect transform="matrix(0,-1,-1,0,0,0)" x="-59" y="-60" width="55.998" height="55.998" rx="27.999" ry="27.999" style="fill:#0286c2"/>
 <path d="M 32 3 C 16.488443 3 4 15.488442 4 31 C 4 31.113552 4.0112846 31.224036 4.0175781 31.335938 C 4.3691113 16.134614 16.711164 4 32 4 C 47.288836 4 59.630889 16.134614 59.982422 31.335938 C 59.988693 31.224116 60 31.113445 60 31 C 60 15.488442 47.511557 3 32 3 z" style="fill:#ffffff;opacity:.1"/>
 <path d="m29.143282 12.000142c-0.789978 0-1.143282 0.68678-1.143282 1.538956v24.460044h-6.001314l9.999714 14.000858 9.999715-14.000058h-5.998115v-24.460044c0-0.851156-0.356504-1.537917-1.146481-1.537917z" style="opacity:.2"/>
 <path d="m29.143282 11.0006c-0.789978 0-1.143282 0.68678-1.143282 1.538956v24.460044h-6.001314l9.999714 14.000858 9.999715-14.000058h-5.998115v-24.460044c0-0.851156-0.356504-1.537917-1.146481-1.537917z" style="fill:#ffffff"/>
</svg>

<svg xmlns="http://www.w3.org/2000/svg" width="64" height="64" version="1">
 <path style="opacity:0.2" d="m 4.050798,31.000828 c -0.0118,0.33399 -0.050799,0.661981 -0.050799,0.999971 C 3.999999,47.512357 16.487643,60 31.9992,60 47.510757,60 59.998401,47.512357 59.998401,32.000799 c 0,-0.33767 -0.03904,-0.665261 -0.05078,-0.999971 -0.527984,15.041571 -12.775634,26.999229 -27.949201,26.999229 -15.173967,0 -27.4212171,-11.957658 -27.949202,-26.999229 z"/>
 <rect style="fill:#0286c2" width="55.998" height="55.998" x="-59" y="-60" rx="27.999" ry="27.999" transform="matrix(0,-1,-1,0,0,0)"/>
 <path style="opacity:0.1;fill:#ffffff" d="M 32 3 C 16.488443 3 4 15.488442 4 31 C 4 31.113552 4.0112846 31.224036 4.0175781 31.335938 C 4.3691113 16.134614 16.711164 4 32 4 C 47.288836 4 59.630889 16.134614 59.982422 31.335938 C 59.988693 31.224116 60 31.113445 60 31 C 60 15.488442 47.511557 3 32 3 z"/>
 <path style="opacity:0.2" d="M 29.143282,12.000142 C 28.353304,12.000142 28,12.686922 28,13.539098 l 0,24.460044 -6.001314,0 L 31.9984,52 41.998115,37.999942 36,37.999942 36,13.539898 c 0,-0.851156 -0.356504,-1.537917 -1.146481,-1.537917 z"/>
 <path style="fill:#ffffff" d="M 29.143282,11.0006 C 28.353304,11.0006 28,11.68738 28,12.539556 l 0,24.460044 -6.001314,0 L 31.9984,51.000458 41.998115,37.0004 36,37.0004 36,12.540356 C 36,11.6892 35.643496,11.002439 34.853519,11.002439 Z"/>
</svg>
